X: 1
T: Hannun ja Riitan h\"a\"avalssi
T: Hannu and Riita's Wedding Waltz
R: waltz
C: Konsta Jylh\"a
B:
D:
Z: John Chambers <jc:trillian.mit.edu>
N:
M: 3/4
L: 1/4
K: Am
|: "Am"[ec]>fe | "E7"[eB]>fe | "Am"[eA]dc | "E7"[B2^G2]B/c/ \
| "Dm"[dF]>cB | "Am"[cE]BA | "G7"[GD]AF | "C"[E3C3] |
| "Am"[ec]>fe | "E7"[eB]>fe | "Am"[eA][af][ge] | "Dm"[f3d3] \
| "Am"[ec]>d[cA] | "E7"[d^G]eB | "Am"A3- | "fine"A2 :|
|: "Dm"d/e/f/e/d | "G7"g2f | "C"e2-e/c/ | "Am"c3 \
| "E7"e/^g/b/g/e | dcd | "Am"e3- | e3 |
| "Dm"def | fed | "Am"c>de | "Dm"AGF \
| "Am"E2E | "E7"^F2^G |1 "Am"A3- | A3 :|2 "Am"A3- | A2"G7"G ||
|: "C"Gz/E/G/c/ | e/g/gf/e/ | "Dm"d/a/ a/z/a | a>af/d/ \
| "G7"B/g/ g/z/g | g>fd/B/ | "C"G/e/ e/z/e | e2E/F/ |
| "C"Gz/E/G/c/ | e/g/gf/e/ | "Dm"d/a/ a/z/a | a>gf/e/ \
| "G7"d/g/ g/z/g | BgB |1 "C"c3- | c2E/F/ :|2 "C"c3 | "E7"e3 |]

%%sep 1 1 500

